src/assets/img/providers/netgaming.svg

<svg width="128" height="20" viewBox="0 0 128 20" fill="none" xmlns="http://www.w3.org/2000/svg">
<g clip-path="url(#clip0_4134_9528)">
<path fill-rule="evenodd" clip-rule="evenodd" d="M18.5315 8.45859L18.5315 8.45852C17.1671 6.34163 15.8365 4.27861 14.5397 2.26948C13.3753 0.466741 10.9781 -0.0921629 9.22464 1.13797C8.82099 1.42108 8.3324 2.00373 7.75889 2.88592C5.57624 6.25213 3.40729 9.62747 1.25204 13.0119C1.49679 13.5581 1.95615 13.9361 2.63012 14.1462C3.57076 14.4384 4.46482 14.2494 5.31231 13.5791L10.2383 6.05852C10.2569 6.03061 10.2824 6.00796 10.3124 5.99282C10.3423 5.97768 10.3755 5.97059 10.4088 5.97226C10.4421 5.97392 10.4742 5.98428 10.502 6.0023C10.5185 6.01304 10.5332 6.02628 10.5455 6.04148C10.5332 6.02629 10.5186 6.01307 10.502 6.00234C10.4742 5.98432 10.4421 5.97396 10.4088 5.97229C10.3756 5.97063 10.3423 5.97772 10.3124 5.99286C10.2825 6.00799 10.2569 6.03065 10.2384 6.05856L5.31233 13.5791L7.34521 17.3325C7.34773 17.3376 7.34884 17.3418 7.34852 17.3451C7.34879 17.3418 7.34769 17.3377 7.3452 17.3327L5.31232 13.5793C4.46483 14.2496 3.57077 14.4386 2.63013 14.1464C1.95616 13.9363 1.4968 13.5583 1.25205 13.0121C-1.95891 17.119 4.07123 21.9217 7.37807 17.4669C7.30319 17.4505 7.25935 17.434 7.24657 17.4176C7.23909 17.4093 7.23558 17.4018 7.23604 17.395C7.23564 17.4017 7.23915 17.4092 7.24658 17.4175C7.25936 17.4339 7.3032 17.4503 7.37808 17.4668L11.3562 11.2969C11.6338 10.875 12.0804 10.5334 12.6959 10.2723L12.6959 10.2722C13.642 9.9745 14.537 10.1553 15.3808 10.8147C15.7242 11.0704 15.9443 11.3261 16.0411 11.5818C16.2201 12.053 16.4018 12.5298 16.5863 13.0119C16.6007 13.0496 16.6131 13.088 16.6233 13.1268C16.6131 13.088 16.6007 13.0497 16.5863 13.012C16.4018 12.5298 16.2201 12.0531 16.0411 11.5819C15.9443 11.3262 15.7242 11.0704 15.3808 10.8147L15.3807 10.8149C14.5369 10.1556 13.642 9.97475 12.6959 10.2725C12.0803 10.5336 11.6338 10.8752 11.3561 11.2971L13.2301 14.2067L13.2302 14.2066L14.7233 16.5243L14.7233 16.5243L15.5479 17.7982L16.6876 16.6887C16.7098 16.667 16.7279 16.6442 16.7419 16.6203C16.7279 16.6443 16.7098 16.6671 16.6877 16.6887L15.5479 17.7983C16.1452 18.5928 16.9324 19.0668 17.9096 19.2202C19.6082 19.486 20.9781 18.686 21.8849 17.2668C24.1443 13.7179 26.3726 10.2586 28.5699 6.88869C29.5452 5.3928 29.9233 3.89417 28.9863 2.33801C28.1205 0.896911 26.7726 0.30787 24.9425 0.570884L26.4767 2.43664C26.4973 2.46162 26.515 2.48857 26.5298 2.51697C26.515 2.48861 26.4973 2.4617 26.4767 2.43675L24.9425 0.570995C23.9635 0.777387 23.1708 1.34086 22.5644 2.26141C22.1479 2.89337 21.7297 3.52899 21.3096 4.16826L21.3096 4.16822L18.5315 8.45859ZM15.6109 15.4311C15.6151 15.4424 15.6171 15.4531 15.617 15.4634C15.6171 15.4532 15.6151 15.4424 15.6109 15.4312C15.6073 15.422 15.6055 15.4129 15.6055 15.4038C15.6041 15.3919 15.6037 15.3803 15.6043 15.369C15.6037 15.3803 15.6041 15.3919 15.6055 15.4037C15.6055 15.4129 15.6073 15.422 15.6109 15.4311ZM21.7668 9.56627C21.76 9.62332 21.6907 9.66503 21.5589 9.6914C21.53 9.69681 21.5083 9.70549 21.4937 9.71743C21.5083 9.7055 21.5301 9.69684 21.5589 9.69143C21.6908 9.66506 21.7601 9.62334 21.7668 9.56627ZM16.8188 16.2284C16.8395 16.2091 16.8662 16.1926 16.8986 16.1791C16.9338 16.1637 16.9652 16.1408 16.9907 16.1119C17.0163 16.0831 17.0353 16.049 17.0466 16.012C17.158 15.6357 17.337 15.2814 17.5836 14.949C17.6515 14.8576 17.7501 14.7937 17.8613 14.7691C17.9725 14.7444 18.0888 14.7606 18.189 14.8147C20.0082 15.7937 21.6849 15.706 23.2192 14.5517C23.2794 14.5079 23.3205 14.4494 23.3425 14.3764C23.3545 14.3373 23.3645 14.2987 23.3724 14.2605C23.3645 14.2987 23.3545 14.3373 23.3424 14.3763C23.3205 14.4494 23.2794 14.5078 23.2192 14.5517C21.6849 15.706 20.0082 15.7937 18.189 14.8147C18.0888 14.7606 17.9725 14.7444 17.8613 14.769C17.7501 14.7937 17.6515 14.8575 17.5835 14.9489C17.337 15.2814 17.158 15.6357 17.0466 16.0119C17.0353 16.0489 17.0162 16.083 16.9907 16.1119C16.9652 16.1407 16.9338 16.1637 16.8986 16.1791C16.8661 16.1926 16.8395 16.209 16.8188 16.2284ZM102.863 4.01766C102.863 4.96486 102.095 5.73272 101.148 5.73272C100.201 5.73272 99.4328 4.96486 99.4328 4.01766C99.4328 3.07045 100.201 2.30259 101.148 2.30259C102.095 2.30259 102.863 3.07045 102.863 4.01766ZM58.4383 6.57648H59.9616C60.1479 6.57648 60.2411 6.66872 60.2411 6.8532V9.04224C60.2411 9.22854 60.147 9.32078 59.9589 9.31895L58.389 9.30525C58.3251 9.30342 58.2931 9.33539 58.2931 9.40114C58.2895 10.5244 58.2895 11.6614 58.2931 12.8121C58.2959 13.5518 59.4301 13.5655 59.9424 13.4888C60.1415 13.4578 60.2411 13.5427 60.2411 13.7436V15.8368C60.2411 16.0084 60.1552 16.1034 59.9835 16.1217C59.1196 16.213 58.3123 16.1774 57.5616 16.0148C55.8685 15.6477 55.4329 14.3135 55.4438 12.7874C55.4511 11.7208 55.452 10.6258 55.4466 9.50251C55.4466 9.39657 55.3936 9.33813 55.2877 9.32717C54.8712 9.28516 54.5324 9.2879 54.2712 9.33539C54.0411 9.37557 53.926 9.27877 53.926 9.04498L53.9288 6.74909C53.9288 6.63402 53.9863 6.57648 54.1014 6.57648H55.3068C55.4018 6.57648 55.4493 6.52899 55.4493 6.43402L55.4466 4.92717C55.4466 4.81027 55.5032 4.73539 55.6164 4.70251L58.1698 3.94909C58.184 3.94485 58.199 3.94396 58.2136 3.94649C58.2282 3.94902 58.242 3.95489 58.254 3.96365C58.2659 3.97241 58.2757 3.98381 58.2825 3.99697C58.2892 4.01013 58.2929 4.02469 58.2931 4.0395L58.2904 6.42854C58.2904 6.52717 58.3397 6.57648 58.4383 6.57648ZM41.337 6.89426C39.7625 5.96824 38.2356 6.09152 36.7561 7.26413C36.652 7.34815 36.6045 7.32349 36.6137 7.19015L36.6438 6.7381C36.6511 6.63034 36.6 6.57646 36.4904 6.57646H33.9315C33.8383 6.57646 33.7918 6.62212 33.7918 6.71344V15.9573C33.7918 15.9943 33.8062 16.0299 33.8319 16.0561C33.8576 16.0823 33.8924 16.097 33.9287 16.097H36.4657C36.5753 16.097 36.6292 16.0422 36.6274 15.9326C36.6109 14.1755 36.6109 12.5162 36.6274 10.9545C36.642 9.67235 37.2018 8.99929 38.3068 8.93536C39.2931 8.87783 40.052 9.52988 40.0548 10.5381C40.0621 12.3993 40.0657 14.1965 40.0657 15.9299C40.0657 16.0413 40.1205 16.097 40.2301 16.097H42.7616C42.8712 16.097 42.9251 16.0422 42.9233 15.9326C42.9013 14.086 42.9023 12.2194 42.926 10.3326C42.9424 9.03673 42.4959 7.57646 41.337 6.89426ZM47.0329 12.6889C47.8192 14.1053 49.8438 14.0889 50.9534 13.1875C50.991 13.1562 51.0374 13.1373 51.0865 13.1334C51.1355 13.1295 51.1847 13.1407 51.2274 13.1656L53.2164 14.3354C53.3169 14.3939 53.3306 14.4679 53.2575 14.5574C52.5196 15.4633 51.5872 16.0213 50.4603 16.2313C47.7562 16.7354 45.052 15.6889 44.1726 12.9738C43.0493 9.51627 45.4931 6.26147 49.0575 6.31353C52.3616 6.36284 54.1863 9.23956 53.737 12.33C53.7242 12.4231 53.6712 12.4697 53.5781 12.4697H47.1616C46.9954 12.4715 46.9525 12.5446 47.0329 12.6889ZM46.9918 10.3519H50.8822C50.8902 10.3519 50.8978 10.3487 50.9035 10.3431C50.9091 10.3374 50.9123 10.3297 50.9123 10.3217V10.308C50.9123 9.92294 50.7068 9.5536 50.341 9.28129C49.9752 9.00898 49.479 8.85599 48.9616 8.85599H48.9123C48.395 8.85599 47.8988 9.00898 47.533 9.28129C47.1671 9.5536 46.9616 9.92294 46.9616 10.308V10.3217C46.9616 10.3297 46.9648 10.3374 46.9705 10.3431C46.9761 10.3487 46.9838 10.3519 46.9918 10.3519ZM64.2822 20.0012H67.5863C69.8529 19.3235 70.9853 17.8633 70.9835 15.6203C70.9799 12.6669 70.9771 9.70984 70.9753 6.74911C70.9753 6.63404 70.9169 6.57651 70.8 6.57651H68.3123C68.2191 6.57651 68.1735 6.62308 68.1753 6.71623L68.1863 7.21486C68.1899 7.38473 68.1278 7.41304 68 7.29979C65.7013 5.28883 62.126 6.50527 61.1013 9.2724C60.3415 11.3345 60.7223 13.1473 62.2438 14.7108C63.6054 16.108 66.6191 16.5792 68.0191 14.9135C68.1032 14.813 68.1534 14.8276 68.1698 14.9573C68.3525 16.4496 67.8648 17.3208 66.7068 17.571C65.4958 17.8322 64.5799 17.5126 63.9589 16.6121C63.8895 16.5098 63.8018 16.4897 63.6959 16.5518L61.5808 17.7792C61.484 17.8359 61.4657 17.9117 61.526 18.0066C62.1415 19.0076 63.0602 19.6724 64.2822 20.0012ZM68.0311 10.2574C68.1515 10.5269 68.2154 10.8165 68.219 11.1097C68.2226 11.4029 68.1658 11.6939 68.052 11.9663C67.9381 12.2386 67.7694 12.4868 67.5554 12.6968C67.3415 12.9067 67.0865 13.0743 66.805 13.19C66.5235 13.3057 66.2211 13.3671 65.9149 13.3709C65.6088 13.3746 65.3049 13.3206 65.0207 13.2118C64.7365 13.1031 64.4774 12.9417 64.2584 12.7371C64.0394 12.5324 63.8647 12.2884 63.7442 12.0189C63.6237 11.7494 63.5599 11.4598 63.5563 11.1666C63.5527 10.8734 63.6095 10.5824 63.7233 10.31C63.8372 10.0377 64.0059 9.7895 64.2198 9.57953C64.4338 9.36955 64.6888 9.20195 64.9703 9.08629C65.2517 8.97063 65.5542 8.90918 65.8603 8.90544C66.1665 8.90169 66.4704 8.95574 66.7546 9.06449C67.0388 9.17323 67.2978 9.33455 67.5168 9.53923C67.7359 9.74391 67.9106 9.98795 68.0311 10.2574ZM79.2931 15.3928C77.8438 16.7764 75.3835 16.5901 73.8959 15.3243C70.8054 12.6969 71.8794 6.97091 76.0931 6.35447C77.3461 6.17183 78.4146 6.4805 79.2986 7.2805C79.4155 7.38461 79.4739 7.35813 79.4739 7.20105L79.4767 6.71338C79.4785 6.62205 79.5251 6.57639 79.6164 6.57639H82.2191C82.3105 6.57457 82.3561 6.62023 82.3561 6.71338V15.96C82.3561 16.0513 82.3105 16.0969 82.2191 16.0969H79.6876C79.5507 16.0969 79.4812 16.0294 79.4794 15.8942L79.4739 15.4695C79.4703 15.307 79.41 15.2814 79.2931 15.3928ZM79.458 11.0652C79.4584 10.7983 79.4063 10.5338 79.3046 10.287C79.2028 10.0402 79.0535 9.81582 78.8651 9.62672C78.6766 9.43762 78.4528 9.28749 78.2063 9.1849C77.9598 9.08231 77.6956 9.02927 77.4286 9.0288L77.0341 9.02812C76.4949 9.02718 75.9775 9.24045 75.5956 9.62103C75.2137 10.0016 74.9986 10.5183 74.9977 11.0574L74.9968 11.5835C74.9963 11.8504 75.0484 12.1149 75.1501 12.3617C75.2519 12.6085 75.4012 12.8329 75.5897 13.022C75.7781 13.2111 76.002 13.3612 76.2484 13.4638C76.4949 13.5664 76.7591 13.6194 77.0261 13.6199L77.4206 13.6206C77.9598 13.6215 78.4772 13.4082 78.8591 13.0277C79.241 12.6471 79.4561 12.1304 79.457 11.5912L79.458 11.0652ZM87.9123 6.58195C87.5653 6.70797 87.2566 6.91985 86.9863 7.21756C86.8767 7.34176 86.8146 7.32076 86.8 7.15455C86.789 7.04496 86.7963 6.93628 86.8219 6.82852C86.8284 6.79822 86.8281 6.76684 86.8209 6.73668C86.8138 6.70652 86.8 6.67833 86.7806 6.65418C86.7611 6.63003 86.7366 6.61052 86.7086 6.59707C86.6807 6.58363 86.6501 6.57659 86.6191 6.57647H84.1205C84.0164 6.57647 83.9643 6.62761 83.9643 6.72989V15.908C83.9643 16.034 84.0274 16.097 84.1534 16.097H86.6657C86.6844 16.097 86.7029 16.0933 86.7202 16.0862C86.7375 16.079 86.7532 16.0685 86.7664 16.0553C86.7797 16.0421 86.7902 16.0264 86.7973 16.0091C86.8045 15.9918 86.8082 15.9733 86.8082 15.9546C86.8118 14.276 86.81 12.5838 86.8027 10.8778C86.8009 10.5162 86.8602 10.16 86.9808 9.80934C87.3616 8.69976 89.0602 8.63674 89.4986 9.62304C89.6319 9.92076 89.6968 10.2568 89.6931 10.6313C89.6803 12.4431 89.6767 14.2157 89.6821 15.9491C89.6821 15.9883 89.6977 16.0259 89.7255 16.0537C89.7532 16.0814 89.7909 16.097 89.8301 16.097H92.3643C92.4758 16.097 92.5305 16.0413 92.5287 15.9299C92.5232 14.3208 92.5223 12.6733 92.526 10.9874C92.5278 10.403 92.5908 9.98286 92.715 9.72715C93.3698 8.37921 95.3753 8.76277 95.3726 10.4039C95.3671 12.15 95.3671 13.9984 95.3726 15.9491C95.3726 16.0477 95.4219 16.097 95.5205 16.097H98.052C98.1817 16.097 98.2447 16.0322 98.2411 15.9025C98.2045 14.4504 98.2045 12.9546 98.2411 11.4148C98.2758 9.93172 98.1415 8.88423 97.8383 8.27236C96.7616 6.09702 93.5917 5.53811 91.9753 7.4066C91.9077 7.48332 91.8401 7.48332 91.7726 7.4066C90.7662 6.28697 89.4794 6.01208 87.9123 6.58195ZM107.233 7.23412C108.555 6.1364 109.991 5.98297 111.54 6.77384C112.967 7.50261 113.362 9.13823 113.334 10.6889C113.305 12.4971 113.303 14.2451 113.329 15.9327C113.331 16.0423 113.277 16.0971 113.167 16.0971H110.636C110.589 16.0971 110.544 16.0787 110.512 16.0458C110.479 16.0129 110.46 15.9683 110.46 15.9218C110.462 14.3565 110.463 12.6688 110.463 10.8588C110.465 9.41768 109.781 8.79485 108.411 8.99028C107.54 9.11448 107.089 9.69622 107.06 10.7355C107.02 12.2624 107.017 13.9875 107.052 15.9108C107.054 16.035 106.993 16.0971 106.868 16.0971H104.34C104.248 16.0971 104.203 16.0506 104.203 15.9574V6.71357C104.203 6.62224 104.249 6.57658 104.342 6.57658H106.866C106.891 6.57654 106.917 6.58172 106.94 6.5918C106.964 6.60188 106.985 6.61665 107.003 6.63517C107.02 6.65369 107.033 6.67557 107.042 6.69943C107.05 6.72329 107.054 6.74863 107.052 6.77384L107.033 7.13549C107.022 7.32179 107.089 7.35466 107.233 7.23412ZM117.844 20.001H121.2C123.454 19.3215 124.579 17.7699 124.575 15.3462C124.57 12.4768 124.568 9.60463 124.57 6.72974C124.57 6.62564 124.518 6.57358 124.414 6.57358L121.975 6.57632C121.858 6.57632 121.801 6.63477 121.803 6.75166L121.805 7.32701C121.807 7.50052 121.75 7.52427 121.633 7.39824C120.647 6.32701 119.23 6.08591 117.808 6.46673C113.249 7.68317 113.178 14.5133 117.748 15.801C119.137 16.19 120.625 15.9873 121.644 14.927C121.739 14.8265 121.793 14.8448 121.805 14.9818C121.921 16.3188 121.542 17.464 120.033 17.6393C118.921 17.769 118.089 17.4229 117.54 16.601C117.483 16.517 117.41 16.5005 117.321 16.5517L115.156 17.8065C115.138 17.8173 115.122 17.8318 115.109 17.8492C115.097 17.8665 115.088 17.8863 115.084 17.9071C115.079 17.928 115.079 17.9496 115.084 17.9705C115.088 17.9913 115.097 18.0111 115.11 18.0284C115.791 18.9909 116.702 19.6485 117.844 20.001ZM121.646 10.275C121.764 10.5453 121.826 10.8353 121.827 11.1285C121.83 11.7207 121.588 12.2899 121.154 12.7109C120.719 13.132 120.128 13.3703 119.51 13.3736C119.204 13.3752 118.901 13.319 118.618 13.2083C118.335 13.0975 118.078 12.9344 117.86 12.7282C117.643 12.522 117.47 12.2767 117.352 12.0064C117.233 11.7362 117.171 11.4461 117.17 11.1529C117.167 10.5607 117.409 9.99149 117.844 9.57046C118.278 9.14944 118.869 8.91109 119.487 8.90786C119.793 8.90625 120.096 8.96242 120.379 9.07315C120.662 9.18388 120.92 9.34701 121.137 9.55322C121.354 9.75942 121.527 10.0047 121.646 10.275ZM102.482 6.57378H99.8027C99.7573 6.57378 99.7205 6.61058 99.7205 6.65597V16.0149C99.7205 16.0603 99.7573 16.0971 99.8027 16.0971H102.482C102.528 16.0971 102.564 16.0603 102.564 16.0149V6.65597C102.564 6.61058 102.528 6.57378 102.482 6.57378ZM125.852 8.09152V6.99563C125.852 6.91161 125.894 6.86412 125.978 6.85316L126.299 6.81755C126.341 6.81207 126.363 6.78741 126.364 6.74358L126.367 6.66686C126.369 6.60842 126.341 6.57919 126.282 6.57919L125.156 6.57645C124.977 6.57645 124.962 6.62668 125.11 6.72714C125.201 6.78924 125.3 6.82577 125.408 6.83673C125.501 6.84768 125.548 6.89974 125.548 6.99289L125.537 8.07234C125.537 8.13627 125.569 8.17189 125.633 8.17919L125.742 8.19015C125.816 8.19928 125.852 8.16641 125.852 8.09152ZM127.973 6.55451V7.04766C127.812 7.31981 127.775 7.63945 127.863 8.00657C127.883 8.09241 127.856 8.11342 127.781 8.06958C127.733 8.04036 127.714 8.00292 127.723 7.95725C127.745 7.85132 127.71 7.781 127.616 7.74629C127.5 7.70246 127.455 7.74082 127.482 7.86136C127.499 7.92894 127.484 7.99104 127.438 8.04766C127.29 8.23397 127.194 8.20931 127.151 7.97369C127.105 7.71433 127.009 7.48602 126.863 7.28876C126.792 7.19196 126.76 7.20383 126.767 7.32438L126.816 8.0641C126.817 8.07569 126.815 8.08761 126.809 8.09867C126.803 8.10972 126.794 8.11953 126.784 8.12712L126.652 8.21479C126.636 8.22541 126.616 8.23142 126.597 8.23217C126.577 8.23292 126.558 8.22837 126.541 8.21903C126.524 8.20969 126.51 8.19591 126.501 8.17921C126.491 8.16251 126.487 8.14354 126.488 8.12438L126.507 6.81479C126.509 6.71068 126.559 6.63853 126.658 6.59835C126.694 6.58374 126.732 6.5746 126.773 6.57095C126.857 6.56547 126.912 6.60292 126.94 6.68328L127.164 7.32712C127.303 7.72529 127.405 7.71616 127.468 7.29972C127.527 6.90155 127.695 6.65314 127.973 6.55451Z" fill="#919EAB"/>
</g>
<defs>
<clipPath id="clip0_4134_9528">
<rect width="127.945" height="20" fill="white" transform="translate(0.0274048 0.000976562)"/>
</clipPath>
</defs>
</svg>

<svg width="128" height="20" fill="none" xmlns="http://www.w3.org/2000/svg"><g clip-path="url(#a)"><path fill-rule="evenodd" clip-rule="evenodd" d="m18.532 8.459-3.992-6.19C13.375.467 10.978-.092 9.225 1.138c-.404.283-.893.866-1.466 1.748a1467.798 1467.798 0 0 0-6.507 10.126c.245.546.704.924 1.378 1.134.94.292 1.835.103 2.682-.567l4.926-7.52a.194.194 0 0 1 .17-.087.188.188 0 0 1-.096.02.194.194 0 0 0-.074.067l-4.926 7.52 2.033 3.753c.003.006.004.01.004.013 0-.003-.001-.007-.004-.012l-2.033-3.754c-.847.67-1.741.86-2.682.567-.674-.21-1.133-.588-1.378-1.134-3.21 4.107 2.82 8.91 6.126 4.455-.075-.016-.119-.033-.131-.05-.008-.008-.011-.015-.011-.022 0 .007.003.014.01.023.013.016.057.032.132.049l3.978-6.17c.278-.422.724-.764 1.34-1.025.946-.297 1.841-.117 2.685.543.343.255.563.511.66.767.18.471.36.948.545 1.43l-.545-1.43c-.097-.256-.317-.512-.66-.767-.844-.66-1.739-.84-2.685-.542-.616.26-1.062.602-1.34 1.024l1.874 2.91 1.493 2.317.825 1.274 1.14-1.11-1.14 1.11a3.539 3.539 0 0 0 2.362 1.422c1.698.266 3.068-.534 3.975-1.953 2.26-3.55 4.488-7.008 6.685-10.378.975-1.496 1.353-2.995.416-4.551C28.12.897 26.773.308 24.942.571l1.535 1.866L24.942.57c-.979.206-1.771.77-2.378 1.69L21.31 4.168l-2.778 4.29ZM15.61 15.43a.205.205 0 0 1 0 0Zm6.156-5.865c-.007.057-.076.099-.208.125.132-.026.201-.068.208-.125Zm-4.948 6.662a.266.266 0 0 1 .08-.049.264.264 0 0 0 .148-.167c.111-.376.29-.73.537-1.063a.473.473 0 0 1 .605-.134c1.82.979 3.496.891 5.03-.263a.327.327 0 0 1 0 0c-1.534 1.154-3.21 1.242-5.03.263a.474.474 0 0 0-.605.134 3.395 3.395 0 0 0-.537 1.063.27.27 0 0 1-.148.167.263.263 0 0 0-.08.05Zm86.044-12.21a1.715 1.715 0 1 1-3.43 0 1.715 1.715 0 0 1 3.43 0ZM58.438 6.576h1.524c.186 0 .28.093.28.277v2.19c0 .186-.095.278-.283.276l-1.57-.014c-.064-.002-.096.03-.096.096-.004 1.123-.004 2.26 0 3.411.003.74 1.137.754 1.65.677.199-.031.298.054.298.255v2.093c0 .171-.086.266-.258.285a7.615 7.615 0 0 1-2.421-.107c-1.694-.367-2.13-1.702-2.118-3.228.007-1.066.008-2.161.003-3.284 0-.106-.053-.165-.16-.176-.416-.042-.755-.04-1.016.008-.23.04-.345-.056-.345-.29l.003-2.296c0-.115.057-.173.172-.173h1.206c.095 0 .142-.047.142-.142l-.002-1.507c0-.117.056-.192.17-.224l2.553-.754a.096.096 0 0 1 .123.09l-.003 2.39c0 .098.05.147.148.147Zm-17.101.318c-1.575-.926-3.101-.802-4.58.37-.105.084-.152.06-.143-.074l.03-.452c.007-.108-.044-.162-.154-.162h-2.559c-.093 0-.14.046-.14.137v9.244c0 .037.015.073.04.1.027.025.061.04.098.04h2.537c.11 0 .163-.055.161-.164a250.107 250.107 0 0 1 0-4.979c.015-1.282.575-1.955 1.68-2.019.986-.057 1.745.595 1.748 1.603.007 1.861.01 3.659.01 5.392 0 .111.056.167.165.167h2.532c.11 0 .163-.055.161-.164-.022-1.847-.02-3.714.003-5.6.016-1.296-.43-2.757-1.589-3.439Zm5.696 5.795c.786 1.416 2.81 1.4 3.92.498a.237.237 0 0 1 .274-.021l1.99 1.17c.1.058.114.132.04.221-.737.906-1.67 1.464-2.797 1.674-2.704.504-5.408-.542-6.287-3.257-1.124-3.458 1.32-6.713 4.884-6.66 3.305.049 5.13 2.926 4.68 6.016-.013.093-.066.14-.159.14h-6.416c-.167.002-.21.075-.13.219Zm-.041-2.337h3.89a.03.03 0 0 0 .022-.009.03.03 0 0 0 .008-.021v-.014c0-.385-.205-.754-.571-1.027-.366-.272-.862-.425-1.38-.425h-.049c-.517 0-1.013.153-1.379.425-.366.273-.571.642-.571 1.027v.014a.03.03 0 0 0 .03.03Zm17.29 9.65h3.304c2.267-.678 3.4-2.139 3.398-4.382-.004-2.953-.007-5.91-.009-8.87 0-.116-.058-.173-.175-.173h-2.488c-.093 0-.138.046-.137.14l.011.498c.004.17-.058.198-.186.085-2.299-2.011-5.874-.795-6.899 1.972-.76 2.063-.379 3.875 1.143 5.439 1.361 1.397 4.375 1.868 5.775.203.084-.101.134-.086.15.043.184 1.493-.304 2.364-1.462 2.614-1.211.261-2.127-.058-2.748-.959-.07-.102-.157-.122-.263-.06l-2.115 1.227c-.097.057-.115.133-.055.228.615 1 1.534 1.665 2.756 1.994Zm3.75-9.745a2.153 2.153 0 0 1 .02 1.71 2.23 2.23 0 0 1-.497.73c-.214.21-.469.377-.75.493a2.422 2.422 0 0 1-1.784.022 2.342 2.342 0 0 1-.763-.475 2.23 2.23 0 0 1-.514-.718 2.151 2.151 0 0 1-.02-1.709 2.23 2.23 0 0 1 .496-.73c.214-.21.469-.378.75-.494a2.42 2.42 0 0 1 1.785-.022c.284.11.543.27.762.475.219.205.394.449.514.718Zm11.261 5.136c-1.45 1.383-3.91 1.197-5.397-.069-3.09-2.627-2.017-8.353 2.197-8.97 1.253-.182 2.322.127 3.206.926.116.105.175.078.175-.079l.003-.488c.001-.091.048-.137.14-.137h2.602c.092-.001.137.044.137.137v9.247c0 .091-.045.137-.137.137h-2.531c-.137 0-.207-.068-.209-.203l-.005-.425c-.004-.162-.064-.188-.18-.076Zm.165-4.328a2.035 2.035 0 0 0-2.03-2.036h-.394a2.033 2.033 0 0 0-2.036 2.028l-.001.527a2.033 2.033 0 0 0 2.03 2.036h.394a2.033 2.033 0 0 0 2.036-2.029l.001-.526Zm8.454-4.483a2.307 2.307 0 0 0-.926.636c-.11.124-.171.103-.186-.063a.978.978 0 0 1 .022-.326.208.208 0 0 0-.203-.253h-2.498c-.105 0-.157.052-.157.154v9.178c0 .126.063.189.19.189h2.512a.144.144 0 0 0 .131-.088.142.142 0 0 0 .011-.054c.004-1.679.002-3.371-.005-5.077a3.215 3.215 0 0 1 .178-1.069c.38-1.11 2.08-1.172 2.518-.186.133.298.198.634.194 1.008a522.53 522.53 0 0 0-.01 5.318.148.148 0 0 0 .147.148h2.534c.112 0 .166-.056.165-.167-.006-1.61-.007-3.257-.003-4.943.002-.584.065-1.004.189-1.26.655-1.348 2.66-.964 2.658.677a931.084 931.084 0 0 0 0 5.545c0 .099.049.148.147.148h2.532c.13 0 .193-.065.19-.195a91.704 91.704 0 0 1 0-4.487c.034-1.483-.1-2.53-.404-3.143-1.076-2.175-4.246-2.734-5.863-.865-.067.076-.135.076-.202 0-1.007-1.12-2.294-1.395-3.86-.825Zm19.321.652c1.322-1.098 2.758-1.251 4.307-.46 1.427.729 1.822 2.364 1.794 3.915a166.961 166.961 0 0 0-.005 5.244c.002.11-.052.164-.162.164h-2.531a.176.176 0 0 1-.176-.175c.002-1.565.003-3.253.003-5.063.002-1.441-.682-2.064-2.052-1.869-.871.124-1.322.706-1.351 1.745a117.7 117.7 0 0 0-.008 5.176c.002.124-.059.186-.184.186h-2.528c-.092 0-.137-.046-.137-.14V6.714c0-.092.046-.137.139-.137h2.524a.186.186 0 0 1 .186.197l-.019.361c-.011.187.056.22.2.1Zm10.611 12.767h3.356c2.254-.68 3.379-2.231 3.375-4.655-.005-2.87-.007-5.741-.005-8.616 0-.104-.052-.156-.156-.156l-2.439.002c-.117 0-.174.059-.172.176l.002.575c.002.174-.055.197-.172.071-.986-1.071-2.403-1.312-3.825-.931-4.559 1.216-4.63 8.046-.06 9.334 1.389.389 2.877.186 3.896-.874.095-.1.149-.082.161.055.116 1.337-.263 2.482-1.772 2.657-1.112.13-1.944-.216-2.493-1.038-.057-.084-.13-.1-.219-.05l-2.165 1.256a.153.153 0 0 0-.072.164c.004.02.013.04.026.057a5.1 5.1 0 0 0 2.734 1.973Zm3.802-9.726c.118.27.18.56.181.854a2.189 2.189 0 0 1-.673 1.582 2.383 2.383 0 0 1-1.644.663 2.415 2.415 0 0 1-.892-.166 2.348 2.348 0 0 1-.758-.48 2.226 2.226 0 0 1-.508-.722 2.134 2.134 0 0 1-.182-.853 2.186 2.186 0 0 1 .674-1.583 2.378 2.378 0 0 1 1.643-.662c.306-.002.609.054.892.165.283.11.541.274.758.48.217.206.39.452.509.722Zm-19.164-3.701h-2.68a.082.082 0 0 0-.082.082v9.359c0 .045.037.082.083.082h2.679a.082.082 0 0 0 .082-.082V6.656a.082.082 0 0 0-.082-.082Zm23.37 1.518V6.996c0-.084.042-.132.126-.143l.321-.035c.042-.006.064-.03.065-.074l.003-.077c.002-.059-.026-.088-.085-.088l-1.126-.003c-.179 0-.194.05-.046.151.091.062.19.099.298.11.093.01.14.063.14.156l-.011 1.08c0 .063.032.099.096.106l.109.011c.074.01.11-.024.11-.098Zm2.121-1.537v.493c-.161.272-.198.591-.11.959.02.085-.007.106-.082.063-.048-.03-.067-.067-.058-.113.022-.106-.013-.176-.107-.21-.116-.045-.161-.006-.134.114a.203.203 0 0 1-.044.187c-.148.186-.244.161-.287-.074a1.604 1.604 0 0 0-.288-.685c-.071-.097-.103-.085-.096.035l.049.74a.06.06 0 0 1-.007.035.091.091 0 0 1-.025.028l-.132.088a.11.11 0 0 1-.111.004.1.1 0 0 1-.04-.04.096.096 0 0 1-.013-.055l.019-1.31a.222.222 0 0 1 .151-.216.396.396 0 0 1 .115-.027c.084-.006.139.032.167.112l.224.644c.139.398.241.39.304-.027.059-.398.227-.647.505-.745Z" fill="#919EAB"/></g><defs><clipPath id="a"><path fill="#fff" transform="translate(.027 .001)" d="M0 0h127.945v20H0z"/></clipPath></defs></svg>
